packages/core/src/svgs/tokens/mono/CTXC.svg

<svg width="24" height="24" viewBox="0 0 24 24" fill="none" xmlns="http://www.w3.org/2000/svg">
<path d="M11.9062 3.61917C11.775 3.31292 12.2562 3.09418 12.3875 3.38793L21.7437 19.8065C21.5812 19.8065 21.4187 19.7503 21.2624 19.7253L12.9313 18.0378C12.6625 18.0253 12.6 17.5753 12.8687 17.5066L16.1313 16.5941C16.172 16.5853 16.2102 16.5673 16.2427 16.5412C16.2752 16.5152 16.3012 16.4819 16.3187 16.444C16.336 16.4068 16.3451 16.3663 16.3451 16.3253C16.3451 16.2843 16.336 16.2438 16.3187 16.2066L11.9062 3.61293V3.61917Z" fill="white"/>
<path d="M11.4249 3.64453C11.4562 3.68828 11.4874 3.73829 11.5061 3.78828C12.4937 6.63826 13.5062 9.48825 14.4874 12.3382C14.5749 12.5758 14.2437 12.7757 14.0873 12.5944C13.2437 11.7008 12.4437 10.782 11.6187 9.88199C11.4874 9.75699 11.2936 9.83824 11.2061 9.96949L2.61874 20.2382C2.51874 20.3444 2.43124 20.5068 2.26874 20.5257C2.14375 20.5257 2.06875 20.4319 2 20.3381V20.1819C5.14372 14.6695 8.28744 9.16324 11.4249 3.64453Z" fill="white"/>
<path d="M8.79999 13.4256C8.96249 13.3756 9.17504 13.4882 9.11875 13.6881C8.7875 14.8694 8.43126 16.0444 8.0875 17.2132C8.03125 17.3631 8.16876 17.5006 8.30625 17.5069C12.8 18.4257 17.2937 19.3756 21.7873 20.2881C21.8748 20.3006 21.9311 20.3694 22 20.4256V20.6131L21.8748 20.7507H2.80005C4.80004 18.3132 6.79377 15.8507 8.79999 13.4256Z" fill="white"/>
</svg>

<svg xmlns="http://www.w3.org/2000/svg" width="24" height="24" fill="none" viewBox="0 0 24 24">
    <path fill="#fff" d="M11.906 3.62c-.131-.307.35-.526.481-.232l9.357 16.418c-.163 0-.325-.056-.482-.08l-8.33-1.688c-.27-.013-.332-.463-.063-.531l3.262-.913a.27.27 0 0 0 .188-.15.28.28 0 0 0 0-.237L11.906 3.613z"/>
    <path fill="#fff" d="M11.425 3.645a.7.7 0 0 1 .081.143c.988 2.85 2 5.7 2.981 8.55.088.238-.243.438-.4.256-.843-.893-1.643-1.812-2.468-2.712-.132-.125-.325-.044-.413.087L2.62 20.24c-.1.105-.188.268-.35.287-.125 0-.2-.094-.269-.188v-.156c3.143-5.513 6.286-11.02 9.424-16.538"/>
    <path fill="#fff" d="M8.8 13.426c.162-.05.375.062.319.262-.332 1.181-.688 2.356-1.031 3.525-.057.15.08.288.218.294 4.494.919 8.988 1.869 13.481 2.781.088.013.144.081.213.138v.187l-.125.138H2.8c2-2.438 3.994-4.9 6-7.325"/>
</svg>
